src/images/svg/be-square/train.svg

<svg width="64" height="64" viewBox="0 0 64 64" fill="none" xmlns="http://www.w3.org/2000/svg">
<g clip-path="url(#clip0)">
<path fill-rule="evenodd" clip-rule="evenodd" d="M2.67676 40.5204C2.29085 40.3377 1.92055 40.1236 1.56956 39.8804C0.805996 39.4489 0.247904 38.7286 0.0207627 37.8815C-0.148837 36.7828 0.661829 35.6852 1.4341 34.7434C3.25969 32.3912 4.82475 29.848 6.10183 27.1583C6.18331 27.0131 6.24434 26.8573 6.28316 26.6954C6.27889 26.401 5.93436 26.0639 5.4117 25.585C4.62522 25.0047 4.07181 24.1627 3.85116 23.2106C3.79887 22.5988 3.89854 21.9836 4.14129 21.4196C4.30445 20.9909 4.48763 20.576 4.6699 20.1632L4.66991 20.1632L4.76636 19.9444C5.14716 19.1643 5.45359 18.35 5.68156 17.5124C5.94902 16.2063 6.29996 14.9187 6.73223 13.6575C7.67251 11.0658 9.12831 8.69165 11.0117 6.67829C13.3968 4.15669 16.8922 2.47029 21.7018 1.51029C25.1 0.765396 28.5481 0.270559 32.0186 0.0297541C33.2547 -0.0341792 34.4938 -0.00958306 35.7264 0.103354C36.1067 0.138795 36.4392 0.374442 36.5987 0.72153C36.7581 1.06862 36.7203 1.47442 36.4995 1.78606C36.2786 2.09771 35.9083 2.26786 35.528 2.23242C34.3988 2.12576 33.2633 2.10152 32.1306 2.15989C28.7641 2.39634 25.4194 2.87833 22.1232 3.60202C17.8138 4.45749 14.6032 5.98495 12.5637 8.14495C10.8791 9.94922 9.57724 12.0758 8.73649 14.3967C8.34158 15.5512 8.02092 16.7298 7.77649 17.9252C7.51691 18.9219 7.15963 19.8905 6.70983 20.817L6.68176 20.8798C6.49055 21.3078 6.29958 21.7353 6.13383 22.1706C6.02941 22.4104 5.9708 22.6676 5.96103 22.929C6.00658 23.2414 6.40979 23.6118 6.83846 24.0055L6.84743 24.0138C7.72989 24.6347 8.30052 25.6072 8.41223 26.6804C8.39231 27.1871 8.25111 27.6817 8.00049 28.1226C6.66546 30.9348 5.02921 33.594 3.1205 36.0532C2.30876 37.042 2.1349 37.4335 2.1349 37.5956C2.3321 37.7874 2.54631 37.961 2.7749 38.114C3.05331 38.3082 3.34729 38.4791 3.65383 38.625C4.5637 39.09 5.81063 39.7279 6.06556 41.0292C6.21896 41.8348 6.11987 42.6682 5.78183 43.4154C5.59623 43.8068 5.40423 44.1524 5.23676 44.4468C5.19199 44.5223 5.14651 44.605 5.10327 44.6837L5.10324 44.6837L5.10309 44.684L5.10291 44.6843L5.10287 44.6844L5.0757 44.7338C5.52369 45.09 6.1221 45.5423 6.37703 45.73C6.60972 45.9013 6.763 46.1596 6.8018 46.4459C6.8406 46.7322 6.76161 47.022 6.58289 47.249C6.42406 47.4552 6.28614 47.6767 6.17116 47.9103L6.40049 48.0415C7.34138 48.4475 8.05978 49.2418 8.36956 50.2186C8.52658 50.9809 8.4899 51.7705 8.26289 52.5151C8.21383 52.7327 8.16369 52.9567 8.13276 53.17C8.07675 53.8119 8.16682 54.4581 8.39623 55.0602C8.63425 56.0427 9.60003 56.6667 10.5936 56.4799C13.7 55.7325 16.7607 54.8065 19.7605 53.7066H19.768C20.7385 53.3771 21.629 53.0665 22.3674 52.8089L22.3681 52.8087L22.3691 52.8083L22.3713 52.8076L22.6746 52.7018C23.4117 52.4426 23.9749 52.2474 24.265 52.1546C28.6992 50.7423 29.5984 49.1444 29.5728 48.0532C29.559 47.4645 30.0251 46.976 30.6138 46.962C30.8967 46.9508 31.1722 47.0545 31.3773 47.2496C31.5825 47.4448 31.6999 47.7146 31.7029 47.9978C31.7658 50.6484 29.481 52.7284 24.9136 54.1844C24.6341 54.2783 24.0933 54.4671 23.3765 54.7178L22.4165 55.0516C24.1777 57.0016 25.4632 59.3332 26.1722 61.8634L50.3664 61.7908L50.2949 61.6842C49.9876 61.2416 49.7114 60.7783 49.4682 60.2975C48.9376 59.2214 48.4949 58.1042 48.1445 56.9567C47.4956 54.7713 47.0454 52.5318 46.7994 50.2655C46.3788 46.697 46.9186 43.0809 48.3632 39.7908C49.2148 38.0104 50.2681 36.3336 51.5024 34.7935C52.1221 33.9594 52.7621 33.0975 53.3157 32.2218C54.2112 30.8321 54.8607 29.2985 55.2357 27.6884C55.3763 27.1231 55.9444 26.7751 56.5119 26.9068C57.0794 27.0385 57.4363 27.6011 57.3136 28.1706C56.8847 30.0154 56.1414 31.7726 55.1162 33.3652C54.5294 34.2901 53.8765 35.1715 53.2458 36.0228L53.2458 36.0229L53.2456 36.0231L53.2154 36.0639C52.0789 37.4752 51.1069 39.0116 50.3184 40.6431C49.0262 43.5849 48.5423 46.8183 48.9168 50.0095C49.1479 52.1465 49.5702 54.2584 50.1786 56.3199C50.4978 57.3629 50.9006 58.3784 51.3829 59.3567C51.5869 59.7559 51.8179 60.1408 52.0741 60.5087C52.5271 61.1305 52.8908 61.8127 53.1546 62.5354C53.2564 62.859 53.1981 63.2118 52.9977 63.4856C52.7972 63.7593 52.4785 63.9214 52.1392 63.922L25.3658 63.9967C24.8759 63.997 24.4487 63.6636 24.3301 63.1882C23.9344 61.5786 22.4154 57.2906 20.0133 55.8804C17.0702 56.9509 14.0675 57.8494 11.0202 58.5716C10.7336 58.6315 10.4416 58.6623 10.1488 58.6634C8.3843 58.6335 6.84828 57.4499 6.36956 55.7514C6.02677 54.8348 5.9033 53.8506 6.00903 52.8778C6.04849 52.594 6.10929 52.3178 6.17223 52.0404C6.30685 51.6239 6.34693 51.1826 6.28956 50.7487C6.20209 50.4191 5.95676 50.2527 5.32956 49.8954C5.07996 49.7514 4.8229 49.602 4.5829 49.4314C4.23927 49.1839 4.01279 48.8058 3.95676 48.386C3.91607 47.8497 4.0372 47.3135 4.30449 46.8468C3.94076 46.5684 3.5429 46.2602 3.3125 46.0468C2.3269 45.2404 2.9797 44.0852 3.37116 43.3962L3.39734 43.3497C3.53431 43.1067 3.69117 42.8283 3.8405 42.5076C3.98969 42.1685 4.03318 41.7923 3.9653 41.4282C3.9109 41.1508 3.13863 40.7562 2.67676 40.5204ZM15.6588 11.0763C14.3698 12.4628 13.3742 14.0955 12.7319 15.8763C12.407 16.8531 12.1417 17.8487 11.9372 18.8576L9.854 18.3958C10.0782 17.2938 10.3707 16.207 10.7297 15.1413C11.471 13.0875 12.6205 11.205 14.1089 9.60748C15.8412 7.77708 18.6817 6.45868 22.5527 5.68854C23.1306 5.57396 23.692 5.94956 23.8065 6.52748C23.9211 7.10539 23.5455 7.66676 22.9676 7.78134C19.5393 8.46294 17.0807 9.57121 15.6588 11.0763ZM35.0505 5.96944L34.4105 9.16091C33.7936 9.3635 33.1931 9.61313 32.6143 9.90757L29.906 8.09424C29.0598 7.54007 27.9407 7.65634 27.2265 8.37264L25.4559 10.1422C24.7255 10.8593 24.6073 11.9941 25.1743 12.8462L26.9791 15.5417C26.6846 16.1205 26.435 16.721 26.2324 17.338L23.0452 17.978C22.0493 18.1791 21.3335 19.0548 21.3343 20.0708V22.5881C21.3336 23.6024 22.0471 24.477 23.0409 24.6798L26.2324 25.3198C26.435 25.9368 26.6846 26.5373 26.9791 27.1161L25.1657 29.8244C24.6116 30.6706 24.7278 31.7896 25.4441 32.5038L27.2148 34.2745C27.9332 35.0016 29.0654 35.1191 29.9177 34.555L32.6132 32.7502C33.192 33.0447 33.7925 33.2943 34.4095 33.4969L35.0495 36.6841C35.2502 37.6804 36.1259 38.3968 37.1423 38.3961H39.6596C40.6739 38.3968 41.5485 37.6833 41.7513 36.6894L42.3913 33.498C43.0083 33.2954 43.6088 33.0458 44.1876 32.7513L46.8959 34.5646C47.7421 35.1188 48.8611 35.0025 49.5753 34.2862L51.3449 32.5166C52.0753 31.7996 52.1935 30.6648 51.6265 29.8126L49.8217 27.1172C50.1162 26.5384 50.3658 25.9379 50.5684 25.3209L53.7556 24.6809C54.3887 24.5529 54.9292 24.1439 55.2244 23.5694L56.8318 24.6468C57.142 24.8422 57.501 24.9461 57.8676 24.9465C58.3789 24.9466 58.8692 24.7428 59.2297 24.3801L60.6484 22.9614C61.2935 22.313 61.3972 21.3016 60.8969 20.5358L59.5209 18.4772C59.7205 18.076 59.893 17.6619 60.0372 17.2377L62.451 16.7566C63.3542 16.5792 64.0044 15.7858 64.0009 14.8654V12.8601C64.0041 11.9431 63.3585 11.1519 62.4596 10.971L60.035 10.4878C59.892 10.0635 59.7202 9.64939 59.5209 9.24837L60.9182 7.16517C61.4024 6.4022 61.2916 5.40526 60.6516 4.76731L59.2329 3.34864C58.5847 2.70309 57.573 2.59944 56.8073 3.10011L54.7486 4.47611C54.3475 4.27652 53.9334 4.10404 53.5092 3.95984L53.027 1.54597C52.8497 0.643227 52.0569 -0.00683906 51.1369 -0.00389414H49.1316C48.2146 -0.00712995 47.4234 0.638483 47.2425 1.53744L46.7593 3.96197C46.3349 4.10608 45.9208 4.27893 45.5199 4.47931L43.4367 3.08197C42.6735 2.59861 41.6771 2.70941 41.0388 3.34864L40.0788 4.30864C39.9409 4.27987 39.8005 4.26451 39.6596 4.26277H37.1423C36.128 4.26206 35.2534 4.97563 35.0505 5.96944ZM51.3577 10.1508L50.8596 9.65264C52.7084 9.90013 54.179 11.3258 54.4837 13.1661C54.7884 15.0064 53.8559 16.8299 52.1854 17.6601L50.5662 17.3401C50.3636 16.7231 50.114 16.1226 49.8196 15.5438L51.6329 12.8356C52.1891 11.9896 52.0741 10.8693 51.3577 10.154V10.1508ZM42.4297 4.97104L44.8681 6.60944C45.2101 6.83874 45.6534 6.85078 46.0073 6.64037C46.6179 6.28101 47.2746 6.00649 47.9593 5.82437C48.3506 5.71872 48.6481 5.40048 48.7273 5.00304L49.3001 2.12944H50.9684L51.5412 5.00944C51.6204 5.40688 51.9179 5.72511 52.3092 5.83077C52.9939 6.01289 53.6506 6.28741 54.2612 6.64677C54.6163 6.85527 55.0597 6.84074 55.4004 6.60944L57.8388 4.97317L59.0228 6.15717L57.3876 8.59664C57.1583 8.93858 57.1462 9.38196 57.3566 9.73584C57.716 10.3464 57.9905 11.0031 58.1726 11.6878C58.2783 12.0791 58.5965 12.3766 58.994 12.4558L61.874 13.0286V14.6969L58.9993 15.2697C58.6019 15.3489 58.2836 15.6465 58.178 16.0377C57.9959 16.7224 57.7213 17.3791 57.362 17.9897C57.1516 18.3436 57.1636 18.787 57.3929 19.1289L59.0292 21.5673L57.8452 22.7513L55.4676 21.1609V20.0708C55.4677 19.4462 55.1949 18.8528 54.7209 18.4462C56.5988 16.6372 57.188 13.868 56.2092 11.4511C55.2305 9.03424 52.8804 7.45536 50.2729 7.46277C49.628 7.46683 48.9877 7.57192 48.3753 7.77424C47.8541 7.69831 47.3232 7.81512 46.882 8.10277L44.1887 9.90757C43.6099 9.61313 43.0094 9.3635 42.3924 9.16091L41.7524 5.97371C41.7335 5.88824 41.7089 5.80414 41.6788 5.72197L42.4297 4.97104ZM36.3743 10.2116L37.1423 6.39611H39.6596L40.4265 10.2148C40.5063 10.6111 40.8032 10.9283 41.1935 11.034C42.0748 11.2716 42.9214 11.623 43.7119 12.0793C44.0641 12.2836 44.502 12.2696 44.8404 12.043L48.0681 9.88411L49.8558 11.6622L47.6905 14.8932C47.464 15.2316 47.4499 15.6694 47.6543 16.0217C48.1106 16.8122 48.462 17.6588 48.6996 18.5401C48.8052 18.9303 49.1224 19.2273 49.5188 19.307L53.3342 20.0697V22.5881L49.5156 23.355C49.1192 23.4348 48.802 23.7317 48.6964 24.122C48.4588 25.0033 48.1074 25.8499 47.6511 26.6404C47.4467 26.9926 47.4608 27.4305 47.6873 27.7689L49.8462 30.9966L48.0681 32.7844L44.8372 30.619C44.4988 30.3925 44.0609 30.3784 43.7087 30.5828C42.9182 31.0391 42.0716 31.3905 41.1903 31.6281C40.8 31.7338 40.5031 32.051 40.4233 32.4473L39.6596 36.2628H37.1423L36.3753 32.4441C36.2956 32.0478 35.9986 31.7306 35.6084 31.6249C34.7271 31.3873 33.8805 31.0359 33.09 30.5796C32.7377 30.3752 32.2999 30.3893 31.9615 30.6158L28.7337 32.7748L26.946 30.9966L29.1113 27.7657C29.3379 27.4273 29.3519 26.9894 29.1476 26.6372C28.6913 25.8467 28.3399 25.0001 28.1023 24.1188C27.9966 23.7285 27.6794 23.4316 27.2831 23.3518L23.4676 22.5881V20.0708L27.2863 19.3038C27.6826 19.2241 27.9998 18.9271 28.1055 18.5369C28.3431 17.6556 28.6945 16.809 29.1508 16.0185C29.3551 15.6662 29.3411 15.2284 29.1145 14.89L26.9556 11.6622L28.7337 9.87451L31.9647 12.0398C32.3031 12.2664 32.7409 12.2804 33.0932 12.0761C33.8837 11.6198 34.7303 11.2684 35.6116 11.0308C36.0002 10.9237 36.2952 10.6068 36.3743 10.2116ZM45.8674 21.3299C45.8674 25.4537 42.5245 28.7966 38.4008 28.7966C34.279 28.7919 30.9388 25.4517 30.9341 21.3299C30.9341 17.2062 34.277 13.8633 38.4008 13.8633C42.5245 13.8633 45.8674 17.2062 45.8674 21.3299ZM43.7341 21.3299C43.7341 18.3844 41.3463 15.9966 38.4008 15.9966C35.4567 16.0001 33.0709 18.3859 33.0674 21.3299C33.0674 24.2755 35.4552 26.6633 38.4008 26.6633C41.3463 26.6633 43.7341 24.2755 43.7341 21.3299ZM38.399 22.3951C38.988 22.3951 39.4656 21.9175 39.4656 21.3284C39.4656 20.7393 38.988 20.2617 38.399 20.2617C37.8099 20.2617 37.3323 20.7393 37.3323 21.3284C37.3323 21.9175 37.8099 22.3951 38.399 22.3951ZM10.6688 22.3948C10.6688 22.9839 10.1912 23.4614 9.60211 23.4614C9.01301 23.4614 8.53545 22.9839 8.53545 22.3948C8.53545 21.8057 9.01301 21.3281 9.60211 21.3281C10.1912 21.3281 10.6688 21.8057 10.6688 22.3948Z" fill="#FF444F"/>
</g>
<defs>
<clipPath id="clip0">
<rect width="64" height="64" fill="white"/>
</clipPath>
</defs>
</svg>

<svg xmlns="http://www.w3.org/2000/svg" width="64" height="64" fill="none"  xmlns:v="https://vecta.io/nano"><g clip-path="url(#A)"><path fill-rule="evenodd" d="M2.677 40.52c-.386-.183-.756-.397-1.107-.64a3.27 3.27 0 0 1-1.549-1.999c-.17-1.099.641-2.196 1.413-3.138 1.826-2.352 3.391-4.895 4.668-7.585.081-.145.143-.301.181-.463-.004-.294-.349-.631-.871-1.11a4.1 4.1 0 0 1-1.561-2.374c-.052-.612.047-1.227.29-1.791l.529-1.256.096-.219c.381-.78.687-1.594.915-2.432.267-1.306.618-2.594 1.051-3.855a20.4 20.4 0 0 1 4.279-6.979c2.385-2.522 5.881-4.208 10.69-5.168A71.2 71.2 0 0 1 32.019.03a25.95 25.95 0 0 1 3.708.074 1.07 1.07 0 0 1 .773 1.683 1.07 1.07 0 0 1-.971.446 23.35 23.35 0 0 0-3.397-.073 69.31 69.31 0 0 0-10.007 1.442c-4.309.855-7.52 2.383-9.559 4.543-1.685 1.804-2.986 3.931-3.827 6.252-.395 1.155-.716 2.333-.96 3.529-.26.997-.617 1.965-1.067 2.892l-.028.063c-.191.428-.382.855-.548 1.291-.104.24-.163.497-.173.758.046.312.449.683.877 1.077l.009.008c.882.621 1.453 1.593 1.565 2.667A3.17 3.17 0 0 1 8 28.123c-1.335 2.812-2.971 5.471-4.88 7.931-.812.989-.986 1.38-.986 1.542a4.54 4.54 0 0 0 .64.518c.278.194.572.365.879.511.91.465 2.157 1.103 2.412 2.404a3.98 3.98 0 0 1-.284 2.386c-.186.391-.378.737-.545 1.031a8.49 8.49 0 0 0-.133.237h0 0 0 0l-.027.049c.448.356 1.046.808 1.301.996.233.171.386.43.425.716s-.04.576-.219.803a3.92 3.92 0 0 0-.412.661l.229.131c.941.406 1.659 1.2 1.969 2.177.157.762.12 1.552-.107 2.296-.049.218-.099.442-.13.655-.056.642.034 1.288.263 1.89a1.9 1.9 0 0 0 2.197 1.42 83.09 83.09 0 0 0 9.167-2.773h.008l2.907-1.005 1.59-.547c4.434-1.412 5.333-3.01 5.308-4.101-.014-.589.452-1.077 1.041-1.091a1.05 1.05 0 0 1 1.089 1.036c.063 2.651-2.222 4.731-6.789 6.187l-1.537.533-.96.334a17.01 17.01 0 0 1 3.756 6.812l24.194-.073-.072-.107c-.307-.443-.584-.906-.827-1.387-.531-1.076-.973-2.193-1.324-3.341a37.86 37.86 0 0 1-1.345-6.691 20.18 20.18 0 0 1 1.564-10.475c.852-1.78 1.905-3.457 3.139-4.997.62-.834 1.26-1.696 1.813-2.572a14.4 14.4 0 0 0 1.92-4.533c.141-.565.709-.913 1.276-.782s.924.694.802 1.264a16.5 16.5 0 0 1-2.197 5.195c-.587.925-1.24 1.806-1.87 2.658h0 0l-.03.041c-1.137 1.411-2.108 2.948-2.897 4.579-1.292 2.942-1.776 6.175-1.402 9.366a35.95 35.95 0 0 0 1.262 6.31 20.31 20.31 0 0 0 1.204 3.037c.204.399.435.784.691 1.152a8.24 8.24 0 0 1 1.081 2.027c.102.324.043.676-.157.95s-.519.436-.858.436l-26.773.075c-.49 0-.917-.333-1.036-.808-.396-1.61-1.915-5.898-4.317-7.308a80.86 80.86 0 0 1-8.993 2.691 4.34 4.34 0 0 1-.871.092c-1.764-.03-3.301-1.214-3.779-2.912a6.27 6.27 0 0 1-.361-2.874 10 10 0 0 1 .163-.837c.135-.416.175-.858.117-1.292-.087-.33-.333-.496-.96-.853-.25-.144-.507-.293-.747-.464a1.54 1.54 0 0 1-.626-1.045 2.69 2.69 0 0 1 .348-1.539c-.364-.278-.762-.587-.992-.8-.986-.806-.333-1.962.059-2.651l.026-.047a11.92 11.92 0 0 0 .443-.842 1.84 1.84 0 0 0 .125-1.079c-.054-.277-.827-.672-1.289-.908zm12.982-29.444a14.05 14.05 0 0 0-2.927 4.8 25.49 25.49 0 0 0-.795 2.981l-2.083-.462a27.15 27.15 0 0 1 .876-3.255c.741-2.054 1.891-3.936 3.379-5.534 1.732-1.83 4.573-3.149 8.444-3.919.578-.115 1.139.261 1.254.839s-.261 1.139-.839 1.254c-3.428.682-5.887 1.79-7.309 3.295zm19.392-5.107l-.64 3.191c-.617.203-1.217.452-1.796.747l-2.708-1.813c-.846-.554-1.965-.438-2.679.278l-1.771 1.77c-.73.717-.849 1.852-.282 2.704l1.805 2.696c-.294.579-.544 1.179-.747 1.796l-3.187.64c-.996.201-1.712 1.077-1.711 2.093v2.517c-.001 1.014.713 1.889 1.707 2.092l3.191.64c.203.617.452 1.217.747 1.796l-1.813 2.708c-.554.846-.438 1.965.278 2.679l1.771 1.771a2.14 2.14 0 0 0 2.703.28l2.695-1.805c.579.294 1.179.544 1.796.747l.64 3.187c.201.996 1.076 1.713 2.093 1.712h2.517c1.014.001 1.889-.713 2.092-1.707l.64-3.191c.617-.203 1.218-.452 1.796-.747l2.708 1.813c.846.554 1.965.438 2.679-.278l1.77-1.77c.73-.717.849-1.852.282-2.704l-1.805-2.695c.294-.579.544-1.179.747-1.796l3.187-.64c.633-.128 1.174-.537 1.469-1.111l1.607 1.077c.31.195.669.299 1.036.3a1.92 1.92 0 0 0 1.362-.566l1.419-1.419c.645-.648.749-1.66.248-2.426l-1.376-2.059a10.03 10.03 0 0 0 .516-1.239l2.414-.481a1.92 1.92 0 0 0 1.55-1.891V12.86a1.92 1.92 0 0 0-1.541-1.889l-2.425-.483c-.143-.424-.315-.838-.514-1.239l1.397-2.083a1.93 1.93 0 0 0-.267-2.398l-1.419-1.419c-.648-.646-1.66-.749-2.426-.249l-2.059 1.376c-.401-.2-.815-.372-1.239-.516l-.482-2.414a1.92 1.92 0 0 0-1.89-1.55h-2.005a1.92 1.92 0 0 0-1.889 1.541l-.483 2.425a9.87 9.87 0 0 0-1.239.517l-2.083-1.397a1.93 1.93 0 0 0-2.398.267l-.96.96c-.138-.029-.278-.044-.419-.046h-2.517c-1.014-.001-1.889.713-2.092 1.707zm16.307 4.181l-.498-.498c1.849.247 3.319 1.673 3.624 3.513s-.628 3.664-2.298 4.494l-1.619-.32c-.203-.617-.452-1.218-.747-1.796l1.813-2.708c.556-.846.441-1.966-.275-2.682v-.003zm-8.928-5.18l2.438 1.638c.342.229.785.241 1.139.031.611-.359 1.267-.634 1.952-.816.391-.106.689-.424.768-.821l.573-2.874h1.668l.573 2.88c.079.397.377.716.768.821.685.182 1.341.457 1.952.816.355.208.798.194 1.139-.037l2.438-1.636 1.184 1.184-1.635 2.439c-.229.342-.241.785-.031 1.139a7.8 7.8 0 0 1 .816 1.952c.106.391.424.689.821.768l2.88.573v1.668l-2.875.573c-.397.079-.716.377-.821.768-.182.685-.457 1.341-.816 1.952-.21.354-.198.797.031 1.139l1.636 2.438-1.184 1.184-2.378-1.59v-1.09a2.14 2.14 0 0 0-.747-1.625c1.878-1.809 2.467-4.578 1.488-6.995s-3.329-3.996-5.936-3.988c-.645.004-1.285.109-1.898.311-.521-.076-1.052.041-1.493.329l-2.693 1.805a12.7 12.7 0 0 0-1.796-.747l-.64-3.187c-.019-.085-.044-.17-.074-.252l.751-.751zm-6.055 5.241l.768-3.815h2.517l.767 3.819c.08.396.377.713.767.819a10.51 10.51 0 0 1 2.518 1.045c.352.204.79.19 1.129-.036l3.228-2.159 1.788 1.778-2.165 3.231c-.227.338-.241.776-.036 1.128A10.51 10.51 0 0 1 48.7 18.54c.106.39.423.687.819.767l3.815.763v2.518l-3.819.767c-.396.08-.714.377-.819.767a10.51 10.51 0 0 1-1.045 2.518c-.204.352-.19.79.036 1.128l2.159 3.228-1.778 1.788-3.231-2.165c-.338-.227-.776-.241-1.129-.036a10.51 10.51 0 0 1-2.518 1.045c-.39.106-.687.423-.767.819l-.764 3.816h-2.517l-.767-3.819c-.08-.396-.377-.713-.767-.819a10.51 10.51 0 0 1-2.518-1.045c-.352-.204-.79-.19-1.129.036l-3.228 2.159-1.788-1.778 2.165-3.231c.227-.338.241-.776.036-1.128a10.51 10.51 0 0 1-1.045-2.518c-.106-.39-.423-.687-.819-.767l-3.815-.764v-2.517l3.819-.767c.396-.08.713-.377.819-.767a10.51 10.51 0 0 1 1.045-2.518c.204-.352.19-.79-.036-1.128l-2.159-3.228 1.778-1.788 3.231 2.165c.338.227.776.241 1.129.036a10.51 10.51 0 0 1 2.518-1.045c.389-.107.684-.424.763-.819zm9.493 11.118a7.47 7.47 0 0 1-7.467 7.467c-4.122-.005-7.462-3.345-7.467-7.467a7.47 7.47 0 0 1 7.467-7.467 7.47 7.47 0 0 1 7.467 7.467zm-2.133 0c0-2.945-2.388-5.333-5.333-5.333a5.34 5.34 0 0 0-5.333 5.333c0 2.946 2.388 5.333 5.333 5.333s5.333-2.388 5.333-5.333zm-5.335 1.065c.589 0 1.067-.478 1.067-1.067s-.478-1.067-1.067-1.067-1.067.478-1.067 1.067.478 1.067 1.067 1.067zm-27.73 0c0 .589-.478 1.067-1.067 1.067s-1.067-.478-1.067-1.067.478-1.067 1.067-1.067 1.067.478 1.067 1.067z" fill="#ff444f"/></g><defs><clipPath id="A"><path fill="#fff" d="M0 0h64v64H0z"/></clipPath></defs></svg>
